src/assets/svg/icons/fa/nuevos/classic/duotone/link-slash classic duotone.svg

<svg xmlns="http://www.w3.org/2000/svg" viewBox="0 0 640 512"><defs><style>.fa-secondary{opacity:.4}</style></defs><path class="fa-primary" d="M5.112 9.194C13.29-1.238 28.37-3.067 38.81 5.11L630.8 469.1C641.2 477.3 643.1 492.4 634.9 502.8C626.7 513.2 611.6 515.1 601.2 506.9L9.196 42.89C-1.236 34.71-3.065 19.63 5.112 9.194V9.194z"/><path class="fa-secondary" d="M438.6 318.4L534.5 222.5C566 191 566 139.1 534.5 108.5C506.7 80.63 462.7 76.99 430.7 99.9L429.1 101C414.7 111.3 394.7 107.1 384.5 93.58C374.2 79.2 377.5 59.21 391.9 48.94L393.5 47.82C451 6.731 529.8 13.25 579.8 63.24C636.3 119.7 636.3 211.3 579.8 267.7L489.3 358.2L438.6 318.4zM353.4 251.7C359.3 225.5 351.7 197.2 331.7 177.2C306.6 152.1 269.1 147 238.1 161.1L185.7 120.3C242.5 75.82 324.7 79.73 376.1 131.1C420.1 175.1 430.9 239.6 406.7 293.5L353.4 251.7zM263 380C233.1 350.1 218.7 309.8 220.9 270L406.6 416.4C357.4 431 301.9 418.9 263 380H263zM116.6 187.9L167.2 227.8L105.5 289.5C73.99 320.1 73.99 372 105.5 403.5C133.3 431.4 177.3 435 209.3 412.1L210.9 410.1C225.3 400.7 245.3 404 255.5 418.4C265.8 432.8 262.5 452.8 248.1 463.1L246.5 464.2C188.1 505.3 110.2 498.7 60.21 448.8C3.741 392.3 3.741 300.7 60.21 244.3L116.6 187.9z"/></svg>

<svg xmlns="http://www.w3.org/2000/svg" viewBox="0 0 640 512"><!--! Font Awesome Pro 6.4.0 by @fontawesome - https://fontawesome.com License - https://fontawesome.com/license (Commercial License) Copyright 2023 Fonticons, Inc. --><defs><style>.fa-secondary{opacity:.4}</style></defs><path class="fa-primary" d="M5.1 9.2C13.3-1.2 28.4-3.1 38.8 5.1l592 464c10.4 8.2 12.3 23.3 4.1 33.7s-23.3 12.3-33.7 4.1L9.2 42.9C-1.2 34.7-3.1 19.6 5.1 9.2z"/><path class="fa-secondary" d="M220.9 270L406.6 416.4C357.4 431 301.9 418.9 263 380c-29.9-29.9-44.3-70.2-42.2-110zM116.6 187.9l50.6 39.9-61.8 61.8C74 321 74 372 105.5 403.5c27.9 27.9 71.8 31.5 103.8 8.6l1.6-1.1c14.4-10.3 34.4-6.9 44.6 7.4s6.9 34.4-7.4 44.6l-1.6 1.1C189 505.3 110.2 498.7 60.2 448.8c-56.5-56.5-56.5-148 0-204.5l56.4-56.4zm215.1-10.6C306.6 152.1 269.1 147 239 162l-53.2-41.7C242.5 75.8 324.7 79.7 377 132c43.1 43.1 53.9 107.6 29.7 161.5l-53.2-41.7c5.8-26.2-1.7-54.5-21.7-74.5zm248 90.5l-90.5 90.5-50.7-39.8 96-96c31.5-31.5 31.5-82.5 0-114C506.7 80.6 462.7 77 430.7 99.9l-1.6 1.1c-14.4 10.3-34.4 6.9-44.6-7.4s-6.9-34.4 7.4-44.6l1.6-1.1C451 6.7 529.8 13.3 579.8 63.2c56.5 56.5 56.5 148 0 204.5z"/></svg>
